!!!OTL: 694. Wahrsagung der Zigeunerin.
!!!COM: F. Ludw. Seidel
!!!ARE: Europa, Mitteleuropa, Deutschland
!!!SCT: B0694
!!!TXL: @@DE
!!!YEM: Copyright 1995, estate of Helmut Schaffrath.
**kern	**text
*ICvox	*
*Ivox	*
*clefG2	*
*M2/4	*
*k[f#]	*
*G:	*
!LO:TX:a:t=Munter.	!
{16ddL	Gieb,
16ccJ	.
=1	=1
8b	blan-
16Lb	-ker
16aJ	.
8g	Bru-
16f#L	-der,
16gJ	.
=2	=2
8a	gieb
16bq	.
16aL	uns
16g#J	.
8a}	Wein,
{16ccL	und
16bJ	.
=3	=3
8a	laſſ'
16aL	die
16gJ	.
16.f#L	Hand
32gJ	.
16.aL	be-
32bJ	.
=4	=4
4g	-ſehn,
8r}	.
{16bL	ſo
16ccJ	.
=5	=5
8dd	wol-
16eeq	.
16ddL	-len
16cc#J	.
8dd	mir
16eeq	.
16ddL	dir
16cc#J	.
=6	=6
8dd	propheʒein,
8dd#	.
8ee;}	.
{16ccL	was
16bJ	.
=7	=7
8a	ſi-
8a	-cher
16aL	wird
16bJ	.
16ccL	ge'-
16ddJ	.
=8	=8
4b	-ſchehn,
8r}	.
{8b	was
=9	=9
8dd	ſi-
8b	-cher
8g	wird
16bL	ge-
16aJ	.
=10	=10
4g	-ſchehn.
8r}	.
==	==
!!!AGN: Scherz - Lied
!!!GTL: Scherzlieder und Gemischtes
!!!ONB: ESAC (Essen Associative Code) Database: BOEHME
!!!AMT: simple duple
!!!AIN: vox
!!!EED: Helmut Schaffrath
!!!EEV: 1.0
!!Mel. v. F. Ludw. Seidel.
!!@@COMMENT:"Text von J. Ludwig Gericke. Ʒuerſt gedruckt in "Neues geſellſchaftliches Liederbuch. Ham-
!!burg 1795, S. 140. Original: Gieb, blanke Schweſter, gieb uns Wein" rc. 16 Str. Melodie
!!von Ludwig Seidel. Büſching und Hagen, Volksl. 1807 S. 32 Lieder für Jung und Alt
!!Berlin 1818, S. 21. Simrock, Volkslieder Nr. 368. Noch andere Melodien giebts, alle noch werthloſer als dieſe hier."
!!@@END:
!!!Text: J. L. Gericke
!!!URL-scan: https://archive.org/details/BoehmeVtLieder1895/page/n545/mode/2up
!!!ENC: Anna Maria Matuszewska
!!!EEV: 2024/17/07
*-	*-
